X: 1
T: Chassepain
M: 2/4
L: 1/8
R: polka
K: Gmaj
|:d>A Ad |cB AB |E>F GB |AE FD |
d>A Ad |cB AB |E>F GA |B^c d2 :|
|:BG E(d|d)B G(e|e)^c AB |^cd cA |
BG E(d|d)B G(e|e)^c AF |GA FD :|
